X:8
T:Here Stands An Old Maid Forsaken
%%score 1 { ( 2 4 ) | 3 }
L:1/8
Q:1/4=100
M:6/8
I:linebreak $
K:G
V:1 treble nm="Violin"
V:2 treble nm="Piano"
V:4 treble 
V:3 bass 
V:1
D | GGG B2 A | G3 D2 D | EEE F2 E | D3- D2 D |$ G2 G B2 A | G3 D2 D | E2 E FFE | D3- D2 B, |$ 
w: Here|stands an old maid for-|sak- en, She's|of a con- tent- ed|mind, * She's|lost her own tru|lov- er, And|wants an- oth- er as|kind; * She|
D2 D [CD]EF | A3 D2 D | E2 E A2 A | D3- D2 D |$ G2 G B2 A | G2 G [B,D]2 B, | DDD DEF | 
w: wants an- oth- er as|kind, sir. I'll|have you all to|know, * She's|ver- y well pro-|vid- ed for, With|fort- y five strings to her|
(GB,C D2) G |$ DDD DEF | G3- G2 z |] 
w: bow, _ _ _ With|fort- y- five- strings to her|bow! *|
V:2
D | GGG B2 A | [B,G]3 [B,D]2 D | EEE F2 E | D3- D2 D |$ G2 G B2 A | G3 D2 D | E2 E FFE | 
D3- D2 B, |$ [B,D]2 D [CD]EF | A3 D2 D | E2 E A2 A | D3- D2 D |$ G2 G B2 A | [B,G]2 G [B,D]2 B, | 
[B,D]DD [CD]EF | ([B,G][G,B,][A,C] [B,D]2) G |$ [B,D]DD [CD]EF | [B,G]3- [B,G]2 z |] 
V:3
z | [G,,D,]3 [G,,D,]3 | [G,,D,]3 [G,,D,]3 | [C,G,]3 [C,G,]3 | [D,F,A,]3- [D,F,A,]2 z |$ 
[G,,D,]3 [G,,D,]3 | [G,,D,]3 [G,,D,]3 | [C,G,]3 [C,G,]3 | [D,F,A,]3- [D,F,A,]2 z |$ 
[G,,D,]3 [D,A,]3 | [D,F,]3 [D,F,]2 z | [C,G,]3 [C,G,]3 | [D,F,A,]3- [D,F,A,]2 z |$ 
[G,,D,]3 [G,,D,]3 | [G,,D,]3 [G,,D,]3 | [G,,D,]3 [D,A,]3 | [G,,D,]3 [G,,D,]3 |$ [G,,D,]3 [D,A,]3 | 
[G,,D,G,]3- [G,,D,G,]3 |] 
V:4
x | D3 D3 | x6 | C3 C3 | C3- C2 x |$ D3 D3 | B,3 B,3 | C3 C3 | x6 |$ x6 | C3 C3 | C3 C3 | 
C3- C2 x |$ B,3 D3 | z6 | x6 | x6 |$ x6 | x6 |] 



